dist/img/surf/map_slider/Water.svg

<svg width="19" height="25" viewBox="0 0 19 25" fill="none" xmlns="http://www.w3.org/2000/svg">
<path d="M5.24803 15.8598C3.75973 15.8598 2.54883 14.6489 2.54883 13.1606C2.54883 12.8442 2.80664 12.5864 3.12303 12.5864C3.43943 12.5864 3.69723 12.8442 3.69723 13.1606C3.69723 14.0161 4.39448 14.7134 5.24998 14.7134C6.10548 14.7134 6.80273 14.0161 6.80273 13.1606C6.80273 12.8442 7.06054 12.5864 7.37693 12.5864C7.69333 12.5864 7.95113 12.8442 7.95113 13.1606C7.94722 14.6489 6.73628 15.8598 5.24803 15.8598Z" fill="#4AF6CD" stroke="#4AF6CD" stroke-width="0.5"/>
<path d="M9.49998 15.8598C8.01168 15.8598 6.80078 14.6489 6.80078 13.1606C6.80078 12.8442 7.0586 12.5864 7.37498 12.5864C7.69137 12.5864 7.94918 12.8442 7.94918 13.1606C7.94918 14.0161 8.64643 14.7134 9.50193 14.7134C10.3574 14.7134 11.0547 14.0161 11.0547 13.1606C11.0547 12.8442 11.3125 12.5864 11.6289 12.5864C11.9453 12.5864 12.2031 12.8442 12.2031 13.1606C12.1992 14.6489 10.9882 15.8598 9.49998 15.8598Z" fill="#4AF6CD" stroke="#4AF6CD" stroke-width="0.5"/>
<path d="M13.7521 15.8598C12.2638 15.8598 11.0529 14.6489 11.0529 13.1606C11.0529 12.8442 11.3107 12.5864 11.6271 12.5864C11.9435 12.5864 12.2013 12.8442 12.2013 13.1606C12.2013 14.0161 12.8985 14.7134 13.754 14.7134C14.6095 14.7134 15.3068 14.0161 15.3068 13.1606C15.3068 12.8442 15.5646 12.5864 15.881 12.5864C16.1974 12.5864 16.4552 12.8442 16.4552 13.1606C16.4513 14.6489 15.2403 15.8598 13.7521 15.8598Z" fill="#4AF6CD" stroke="#4AF6CD" stroke-width="0.5"/>
<path fill-rule="evenodd" clip-rule="evenodd" d="M0.421951 15.1862C0.421951 20.195 4.49394 24.2698 9.49993 24.2698L9.50018 24.2699C14.506 24.2699 18.5782 20.1954 18.5802 15.1863C18.5802 8.3501 10.2366 0.903967 9.88118 0.589318C9.67218 0.403659 9.35772 0.397795 9.14093 0.573684C8.78343 0.86086 0.421951 7.70507 0.421951 15.1862ZM9.48407 1.78633C9.48416 1.78626 9.48424 1.78618 9.48433 1.7861H9.48383C9.48391 1.78618 9.48399 1.78626 9.48407 1.78633ZM9.48407 1.78633C7.86451 3.20753 1.56833 9.11502 1.56833 15.185C1.56833 19.5608 5.12498 23.1195 9.49783 23.1195C13.8707 23.1195 17.4273 19.5606 17.4273 15.185C17.4293 9.6388 11.09 3.30119 9.48407 1.78633Z" fill="#4AF6CD"/>
<path d="M9.49993 24.2698L9.61241 24.0465L9.55935 24.0198H9.49993V24.2698ZM9.50018 24.2699L9.38769 24.4932L9.44076 24.5199H9.50018V24.2699ZM18.5802 15.1863L18.8302 15.1864V15.1863H18.5802ZM9.88118 0.589318L9.71515 0.776223L9.71548 0.776516L9.88118 0.589318ZM9.14093 0.573684L9.29749 0.76859L9.29844 0.767825L9.14093 0.573684ZM9.48433 1.7861L9.64866 1.97451L10.1513 1.5361H9.48433V1.7861ZM9.48383 1.7861V1.5361H8.85526L9.31213 1.96781L9.48383 1.7861ZM17.4273 15.185L17.1773 15.1849V15.185H17.4273ZM9.49993 24.0198C4.63216 24.0198 0.671951 20.0571 0.671951 15.1862H0.171951C0.171951 20.3329 4.35572 24.5198 9.49993 24.5198V24.0198ZM9.61266 24.0466L9.61241 24.0465L9.38744 24.493L9.38769 24.4932L9.61266 24.0466ZM18.3302 15.1862C18.3283 20.0575 14.3677 24.0199 9.50018 24.0199V24.5199C14.6442 24.5199 18.8281 20.3333 18.8302 15.1864L18.3302 15.1862ZM9.71548 0.776516C9.88797 0.929205 12.0496 2.85753 14.1662 5.59514C16.291 8.34337 18.3302 11.8567 18.3302 15.1863H18.8302C18.8302 11.6797 16.6976 8.05186 14.5617 5.28931C12.4177 2.51614 10.2298 0.56408 10.0469 0.40212L9.71548 0.776516ZM9.29844 0.767825C9.42083 0.668523 9.59832 0.672445 9.71515 0.776223L10.0472 0.402413C9.74603 0.134873 9.29461 0.127068 8.98342 0.379543L9.29844 0.767825ZM0.671951 15.1862C0.671951 11.5321 2.71832 8.00693 4.84297 5.33791C6.96207 2.67587 9.12628 0.906122 9.29749 0.768587L8.98436 0.37878C8.79808 0.528422 6.6028 2.32437 4.45178 5.02651C2.30632 7.72167 0.171951 11.3591 0.171951 15.1862H0.671951ZM9.32 1.5977L9.31959 1.59806L9.64855 1.9746L9.64866 1.97451L9.32 1.5977ZM9.48383 2.0361H9.48433V1.5361H9.48383V2.0361ZM9.65592 1.60476C9.65585 1.60469 9.6557 1.60455 9.65553 1.6044L9.31213 1.96781L9.31223 1.96791L9.65592 1.60476ZM9.31918 1.59842C8.50274 2.31486 6.50903 4.16051 4.71753 6.59417C2.9305 9.02176 1.31833 12.0697 1.31833 15.185H1.81833C1.81833 12.2304 3.35424 9.28953 5.12019 6.89058C6.88168 4.49769 8.84584 2.679 9.64897 1.97424L9.31918 1.59842ZM1.31833 15.185C1.31833 19.6987 4.98676 23.3695 9.49783 23.3695V22.8695C5.26319 22.8695 1.81833 19.4229 1.81833 15.185H1.31833ZM9.49783 23.3695C14.0089 23.3695 17.6773 19.6985 17.6773 15.185H17.1773C17.1773 19.4227 13.7325 22.8695 9.49783 22.8695V23.3695ZM17.6773 15.1851C17.6783 12.3288 16.0526 9.30287 14.2612 6.82735C12.4629 4.34235 10.464 2.36705 9.65562 1.60448L9.31252 1.96819C10.11 2.72047 12.0838 4.67141 13.8561 7.12048C15.6353 9.57903 17.1783 12.495 17.1773 15.1849L17.6773 15.1851Z" fill="#4AF6CD"/>
</svg>

<svg width="19" height="25" fill="none" xmlns="http://www.w3.org/2000/svg"><path d="M5.248 15.86a2.703 2.703 0 01-2.7-2.7.575.575 0 011.15 0c0 .856.696 1.553 1.552 1.553.855 0 1.553-.697 1.553-1.552a.575.575 0 011.148 0 2.708 2.708 0 01-2.703 2.699z" fill="#4AF6CD" stroke="#4AF6CD" stroke-width=".5"/><path d="M9.5 15.86a2.703 2.703 0 01-2.7-2.7.575.575 0 011.15 0c0 .856.696 1.553 1.552 1.553.855 0 1.553-.697 1.553-1.552a.575.575 0 011.148 0A2.708 2.708 0 019.5 15.86z" fill="#4AF6CD" stroke="#4AF6CD" stroke-width=".5"/><path d="M13.752 15.86a2.703 2.703 0 01-2.7-2.7.575.575 0 011.15 0c0 .856.697 1.553 1.552 1.553.856 0 1.553-.697 1.553-1.552a.575.575 0 011.148 0 2.708 2.708 0 01-2.703 2.699z" fill="#4AF6CD" stroke="#4AF6CD" stroke-width=".5"/><path fill-rule="evenodd" clip-rule="evenodd" d="M.422 15.186c0 5.009 4.072 9.084 9.078 9.084 5.006 0 9.078-4.075 9.08-9.084C18.58 8.35 10.237.904 9.881.59a.573.573 0 00-.74-.015C8.783.86.422 7.705.422 15.186zm9.062-13.4zm0 0c-1.62 1.422-7.916 7.329-7.916 13.399 0 4.376 3.557 7.934 7.93 7.934 4.373 0 7.93-3.558 7.93-7.934.001-5.546-6.338-11.884-7.944-13.399z" fill="#4AF6CD"/><path d="M9.5 24.27l.112-.223-.053-.027H9.5v.25zm0 0l-.112.223.053.027h.06v-.25zm9.08-9.084h.25-.25zM9.881.59l-.166.187.166-.187zm-.74-.015l.156.195.001-.001-.157-.194zm.343 1.212l.165.189.502-.439h-.667v.25zm0 0v-.25h-.629l.457.432.172-.182zm7.943 13.399h-.25.25zM9.5 24.02c-4.868 0-8.828-3.963-8.828-8.834h-.5c0 5.147 4.184 9.334 9.328 9.334v-.5zm.113.027l-.226.446.226-.446zm8.717-8.86c-.002 4.87-3.962 8.833-8.83 8.833v.5c5.144 0 9.328-4.187 9.33-9.334h-.5zM9.715.776c.173.152 2.335 2.08 4.451 4.818 2.125 2.748 4.164 6.262 4.164 9.591h.5c0-3.506-2.132-7.134-4.268-9.897C12.418 2.516 10.23.564 10.047.402l-.332.375zm-.417-.01a.324.324 0 01.417.01l.332-.375A.823.823 0 008.983.38l.315.388zM.672 15.188c0-3.655 2.046-7.18 4.171-9.85C6.963 2.677 9.126.908 9.297.77L8.984.38c-.186.15-2.381 1.945-4.532 4.648C2.306 7.723.172 11.36.172 15.188h.5zM9.32 1.596v.001l.329.377-.329-.377zm.164.44v-.5.5zm.172-.432l-.344.363.344-.363zm-.337-.007c-.816.717-2.81 2.563-4.601 4.996-1.788 2.428-3.4 5.476-3.4 8.591h.5c0-2.955 1.536-5.895 3.302-8.294 1.762-2.392 3.726-4.211 4.53-4.916l-.33-.376zm-8 13.587c0 4.514 3.668 8.184 8.179 8.184v-.5c-4.235 0-7.68-3.446-7.68-7.684h-.5zm8.179 8.184c4.51 0 8.18-3.67 8.18-8.184h-.5c0 4.238-3.446 7.684-7.68 7.684v.5zm8.18-8.184c0-2.856-1.625-5.882-3.417-8.358-1.798-2.485-3.797-4.46-4.605-5.223l-.343.364c.797.752 2.77 2.703 4.543 5.152 1.78 2.459 3.322 5.375 3.321 8.065h.5z" fill="#4AF6CD"/></svg>
